X: 16180
T: Green Mountain, The
R: reel
M: 4/4
K: Dmajor
|AF~F2 AFEF|DF~F2 ~A3d|~f3d efdB|Adfd efdB|
AF~F2 AFEF|DF~F2 A2de|fefd efdB|AFEF D2z2:|
fa~a2 bafe|f2af efde|~f3d efdB|Adfd efde|
fa~a2 bafe|f2af efde|fedf efdB|AFEF D2z2:|

